img/icons/electronic/printer.svg

<svg xmlns="http://www.w3.org/2000/svg" viewBox="0 0 48 44"><defs><style>.cls-1{fill:#231f20}</style></defs><g id="Layer_2" data-name="Layer 2"><g id="Icons"><g id="Device_Electronic" data-name="Device / Electronic"><g id="Printer"><path class="cls-1" d="M38 8V0H10v8H0v21a7 7 0 007 7h3v8h28v-8h3a7 7 0 007-7V8zM12 2h24v6H12zm24 40H12V28h24zm10-13a5 5 0 01-5 5h-3v-8H10v8H7a5 5 0 01-5-5V10h44z"/><circle class="cls-1" cx="41" cy="15" r="2"/></g></g></g></g></svg>

<svg xmlns="http://www.w3.org/2000/svg" viewBox="0 0 48 44"><defs><style>.cls-1{fill:#231f20;}</style></defs><title>Printer</title><g id="Layer_2" data-name="Layer 2"><g id="Icons"><g id="Device_Electronic" data-name="Device / Electronic"><g id="Printer"><path class="cls-1" d="M38,8V0H10V8H0V29a7,7,0,0,0,7,7h3v8H38V36h3a7,7,0,0,0,7-7V8ZM12,2H36V8H12ZM36,42H12V28H36ZM46,29a5,5,0,0,1-5,5H38V26H10v8H7a5,5,0,0,1-5-5V10H46Z"/><circle class="cls-1" cx="41" cy="15" r="2"/></g></g></g></g></svg>
